X:20
T:Over ye Hills & farr away. WCl.20
M:C|
L:1/8
Q:1/4=100
S:William Clarke MS,Lincoln,1770.
R:.march
O:Lincoln
A:England
Z:vmp.Barry Callaghan
K:C
“_Key as in MS “cece cA A2|cece fd d2|cece cA f2|A/2G/2F GA fd d2:|!
|:gage cA A2|gage fd d2|gage cA f2|AG/2F/2 GA fd d2:|

